packages/foundations/assets/icons/functional/images/notification/check_circle_20_filled.svg

<svg width="20" height="20" viewBox="0 0 20 20" fill="none" xmlns="http://www.w3.org/2000/svg">
<g clip-path="url(#clip0_2214_8050)">
<path fill-rule="evenodd" clip-rule="evenodd" d="M10 2C14.4098 2 18 5.5634 18 9.9902C18 14.4054 14.4098 18 10 18C5.5902 18 2 14.4054 2 9.9902C2 5.5946 5.5902 2 10 2ZM13.4927 6.7317L8.5951 11.6293L6.509 9.5478L5.0651 10.9527L8.6201 14.4287L14.9366 8.1561L13.4927 6.7317Z" fill="#1A1C1F"/>
</g>
<defs>
<clipPath id="clip0_2214_8050">
<rect width="20" height="20" fill="white"/>
</clipPath>
</defs>
</svg>

<svg xmlns="http://www.w3.org/2000/svg" width="20" height="20" fill="none"><g clip-path="url(#a)"><path fill="#1A1C1F" fill-rule="evenodd" d="M10 2c4.41 0 8 3.563 8 7.99 0 4.415-3.59 8.01-8 8.01s-8-3.595-8-8.01C2 5.595 5.59 2 10 2m3.493 4.732-4.898 4.897L6.51 9.548l-1.444 1.405 3.555 3.476 6.317-6.273z" clip-rule="evenodd"/></g><defs><clipPath id="a"><path fill="#fff" d="M0 0h20v20H0z"/></clipPath></defs></svg>
